public/sheesh/icons19.svg

<svg fill="none" height="60" viewBox="0 0 61 60" width="61" xmlns="http://www.w3.org/2000/svg" xmlns:xlink="http://www.w3.org/1999/xlink"><linearGradient id="a"><stop offset="0" stop-color="#34c796"/><stop offset="1" stop-color="#0b7a55"/></linearGradient><linearGradient id="b" gradientUnits="userSpaceOnUse" x1="30.5" x2="30.5" xlink:href="#a" y1="0" y2="60"/><linearGradient id="c" gradientUnits="userSpaceOnUse" x1="30.4997" x2="30.4997" xlink:href="#a" y1="15.666" y2="44.3332"/><circle cx="30.5" cy="30" fill="#151722" r="29" stroke="url(#b)" stroke-width="2"/><g fill="url(#c)"><path d="m30.4997 44.3332c-5.3334 0-9.6667-3.8267-9.6667-8.5333v-4.9334c0-.5466.4533-1 1-1s1 .4534 1 1c0 3.4934 3.2933 6.1334 7.6667 6.1334 4.3733 0 7.6666-2.64 7.6666-6.1334 0-.5466.4534-1 1-1 .5467 0 1 .4534 1 1v4.9334c0 4.7066-4.3333 8.5333-9.6666 8.5333zm-7.6667-8.3867c.0933 3.5334 3.4933 6.3867 7.6667 6.3867 4.1733 0 7.5733-2.8533 7.6666-6.3867-1.7333 1.88-4.48 3.0534-7.6666 3.0534-3.1867 0-5.92-1.1734-7.6667-3.0534z"/><path d="m30.4997 32.3327c-3.68 0-6.9867-1.6534-8.6-4.32-.6934-1.1334-1.0667-2.4533-1.0667-3.8133 0-2.2934 1.0267-4.4534 2.88-6.0801 1.8133-1.5866 4.2267-2.4533 6.7867-2.4533s4.96.8667 6.7866 2.44c1.8534 1.64 2.88 3.8 2.88 6.0934 0 1.36-.3733 2.6666-1.0666 3.8133-1.6133 2.6666-4.92 4.32-8.6 4.32zm0-14.6667c-2.08 0-4.0267.6933-5.48 1.9733-1.4133 1.2267-2.1867 2.8534-2.1867 4.5601 0 1 .2667 1.9333.7733 2.7733 1.2667 2.08 3.9067 3.36 6.8934 3.36 2.9866 0 5.6267-1.2934 6.8933-3.36.52-.84.7733-1.7733.7733-2.7733 0-1.7067-.7733-3.3334-2.2-4.5867-1.4533-1.2534-3.3866-1.9467-5.4666-1.9467z"/><path d="m30.4997 38.9999c-5.5067 0-9.6667-3.4934-9.6667-8.1334v-6.6671c0-4.7067 4.3333-8.5334 9.6667-8.5334 2.56 0 4.96.8667 6.7866 2.44 1.8534 1.64 2.88 3.8 2.88 6.0934v6.6671c0 4.64-4.16 8.1334-9.6666 8.1334zm0-21.3339c-4.2267 0-7.6667 2.9333-7.6667 6.5334v6.6671c0 3.4934 3.2933 6.1334 7.6667 6.1334 4.3733 0 7.6666-2.64 7.6666-6.1334v-6.6671c0-1.7067-.7733-3.3334-2.2-4.5867-1.4533-1.2534-3.3866-1.9467-5.4666-1.9467z"/></g></svg>

<svg width="61" height="60" viewBox="0 0 61 60" fill="none" xmlns="http://www.w3.org/2000/svg">
<circle cx="30.5" cy="30" r="29" fill="#151722" stroke="url(#paint0_linear_415_5926)" stroke-width="2"/>
<path d="M30.4997 44.3332C25.1663 44.3332 20.833 40.5065 20.833 35.7999V30.8665C20.833 30.3199 21.2863 29.8665 21.833 29.8665C22.3797 29.8665 22.833 30.3199 22.833 30.8665C22.833 34.3599 26.1263 36.9999 30.4997 36.9999C34.873 36.9999 38.1663 34.3599 38.1663 30.8665C38.1663 30.3199 38.6197 29.8665 39.1663 29.8665C39.713 29.8665 40.1663 30.3199 40.1663 30.8665V35.7999C40.1663 40.5065 35.833 44.3332 30.4997 44.3332ZM22.833 35.9465C22.9263 39.4799 26.3263 42.3332 30.4997 42.3332C34.673 42.3332 38.073 39.4799 38.1663 35.9465C36.433 37.8265 33.6863 38.9999 30.4997 38.9999C27.313 38.9999 24.5797 37.8265 22.833 35.9465Z" fill="url(#paint1_linear_415_5926)"/>
<path d="M30.4997 32.3327C26.8197 32.3327 23.513 30.6793 21.8997 28.0127C21.2063 26.8793 20.833 25.5594 20.833 24.1994C20.833 21.906 21.8597 19.746 23.713 18.1193C25.5263 16.5327 27.9397 15.666 30.4997 15.666C33.0597 15.666 35.4597 16.5327 37.2863 18.106C39.1397 19.746 40.1663 21.906 40.1663 24.1994C40.1663 25.5594 39.793 26.866 39.0997 28.0127C37.4864 30.6793 34.1797 32.3327 30.4997 32.3327ZM30.4997 17.666C28.4197 17.666 26.473 18.3593 25.0197 19.6393C23.6064 20.866 22.833 22.4927 22.833 24.1994C22.833 25.1994 23.0997 26.1327 23.6063 26.9727C24.873 29.0527 27.513 30.3327 30.4997 30.3327C33.4863 30.3327 36.1264 29.0393 37.393 26.9727C37.913 26.1327 38.1663 25.1994 38.1663 24.1994C38.1663 22.4927 37.393 20.866 35.9663 19.6127C34.513 18.3593 32.5797 17.666 30.4997 17.666Z" fill="url(#paint2_linear_415_5926)"/>
<path d="M30.4997 38.9999C24.993 38.9999 20.833 35.5065 20.833 30.8665V24.1994C20.833 19.4927 25.1663 15.666 30.4997 15.666C33.0597 15.666 35.4597 16.5327 37.2863 18.106C39.1397 19.746 40.1663 21.906 40.1663 24.1994V30.8665C40.1663 35.5065 36.0063 38.9999 30.4997 38.9999ZM30.4997 17.666C26.273 17.666 22.833 20.5993 22.833 24.1994V30.8665C22.833 34.3599 26.1263 36.9999 30.4997 36.9999C34.873 36.9999 38.1663 34.3599 38.1663 30.8665V24.1994C38.1663 22.4927 37.393 20.866 35.9663 19.6127C34.513 18.3593 32.5797 17.666 30.4997 17.666Z" fill="url(#paint3_linear_415_5926)"/>
<defs>
<linearGradient id="paint0_linear_415_5926" x1="30.5" y1="0" x2="30.5" y2="60" gradientUnits="userSpaceOnUse">
<stop stop-color="#34C796"/>
<stop offset="1" stop-color="#0B7A55"/>
</linearGradient>
<linearGradient id="paint1_linear_415_5926" x1="30.4997" y1="15.666" x2="30.4997" y2="44.3332" gradientUnits="userSpaceOnUse">
<stop stop-color="#34C796"/>
<stop offset="1" stop-color="#0B7A55"/>
</linearGradient>
<linearGradient id="paint2_linear_415_5926" x1="30.4997" y1="15.666" x2="30.4997" y2="44.3332" gradientUnits="userSpaceOnUse">
<stop stop-color="#34C796"/>
<stop offset="1" stop-color="#0B7A55"/>
</linearGradient>
<linearGradient id="paint3_linear_415_5926" x1="30.4997" y1="15.666" x2="30.4997" y2="44.3332" gradientUnits="userSpaceOnUse">
<stop stop-color="#34C796"/>
<stop offset="1" stop-color="#0B7A55"/>
</linearGradient>
</defs>
</svg>
